images/3234266.svg

<?xml version="1.0" encoding="UTF-8"?>
<svg xmlns="http://www.w3.org/2000/svg" xmlns:xlink="http://www.w3.org/1999/xlink" width="300pt" height="300pt" viewBox="0 0 300 300" version="1.1">
<defs>
<g>
<symbol overflow="visible" id="glyph0-0">
<path style="stroke:none;" d="M 0.453125 1.59375 L 0.453125 -6.34375 L 4.953125 -6.34375 L 4.953125 1.59375 Z M 0.953125 1.09375 L 4.453125 1.09375 L 4.453125 -5.84375 L 0.953125 -5.84375 Z M 0.953125 1.09375 "/>
</symbol>
<symbol overflow="visible" id="glyph0-1">
<path style="stroke:none;" d="M 3.546875 -5.953125 C 2.898438 -5.953125 2.382812 -5.710938 2 -5.234375 C 1.625 -4.753906 1.4375 -4.101562 1.4375 -3.28125 C 1.4375 -2.445312 1.625 -1.789062 2 -1.3125 C 2.382812 -0.832031 2.898438 -0.59375 3.546875 -0.59375 C 4.191406 -0.59375 4.703125 -0.832031 5.078125 -1.3125 C 5.453125 -1.789062 5.640625 -2.445312 5.640625 -3.28125 C 5.640625 -4.101562 5.453125 -4.753906 5.078125 -5.234375 C 4.703125 -5.710938 4.191406 -5.953125 3.546875 -5.953125 Z M 3.546875 -6.6875 C 4.460938 -6.6875 5.195312 -6.375 5.75 -5.75 C 6.300781 -5.132812 6.578125 -4.3125 6.578125 -3.28125 C 6.578125 -2.238281 6.300781 -1.410156 5.75 -0.796875 C 5.195312 -0.179688 4.460938 0.125 3.546875 0.125 C 2.617188 0.125 1.878906 -0.179688 1.328125 -0.796875 C 0.773438 -1.410156 0.5 -2.238281 0.5 -3.28125 C 0.5 -4.3125 0.773438 -5.132812 1.328125 -5.75 C 1.878906 -6.375 2.617188 -6.6875 3.546875 -6.6875 Z M 3.546875 -6.6875 "/>
</symbol>
<symbol overflow="visible" id="glyph0-2">
<path style="stroke:none;" d="M 0.890625 -6.5625 L 2.078125 -6.5625 L 4.984375 -1.078125 L 4.984375 -6.5625 L 5.84375 -6.5625 L 5.84375 0 L 4.65625 0 L 1.75 -5.484375 L 1.75 0 L 0.890625 0 Z M 0.890625 -6.5625 "/>
</symbol>
<symbol overflow="visible" id="glyph0-3">
<path style="stroke:none;" d="M 0.890625 -6.5625 L 1.765625 -6.5625 L 1.765625 -3.875 L 5 -3.875 L 5 -6.5625 L 5.890625 -6.5625 L 5.890625 0 L 5 0 L 5 -3.125 L 1.765625 -3.125 L 1.765625 0 L 0.890625 0 Z M 0.890625 -6.5625 "/>
</symbol>
</g>
</defs>
<g id="surface40089">
<rect x="0" y="0" width="300" height="300" style="fill:rgb(100%,100%,100%);fill-opacity:1;stroke:none;"/>
<path style="fill:none;stroke-width:1.2;stroke-linecap:butt;stroke-linejoin:miter;stroke:rgb(0%,0%,0%);stroke-opacity:1;stroke-miterlimit:10;" d="M 247.402344 193.527344 L 253.550781 185.796875 "/>
<path style="fill:none;stroke-width:1.2;stroke-linecap:butt;stroke-linejoin:miter;stroke:rgb(100%,0%,0%);stroke-opacity:1;stroke-miterlimit:10;" d="M 253.550781 185.796875 L 259.695312 178.070312 "/>
<path style="fill:none;stroke-width:1.2;stroke-linecap:butt;stroke-linejoin:miter;stroke:rgb(100%,0%,0%);stroke-opacity:1;stroke-miterlimit:10;" d="M 259.695312 178.070312 L 256.078125 168.878906 "/>
<path style="fill:none;stroke-width:1.2;stroke-linecap:butt;stroke-linejoin:miter;stroke:rgb(0%,0%,0%);stroke-opacity:1;stroke-miterlimit:10;" d="M 256.078125 168.878906 L 252.457031 159.691406 "/>
<path style=" stroke:none;fill-rule:nonzero;fill:rgb(100%,100%,100%);fill-opacity:1;" d="M 255.695312 172.570312 L 263.695312 172.570312 L 263.695312 183.570312 L 255.695312 183.570312 Z M 255.695312 172.570312 "/>
<g style="fill:rgb(100%,0%,0%);fill-opacity:1;">
  <use xlink:href="#glyph0-1" x="255.695312" y="181.233398"/>
</g>
<path style="fill:none;stroke-width:1.2;stroke-linecap:butt;stroke-linejoin:miter;stroke:rgb(0%,0%,0%);stroke-opacity:1;stroke-miterlimit:10;" d="M 252.457031 159.691406 L 232.921875 156.777344 "/>
<path style="fill:none;stroke-width:1.2;stroke-linecap:butt;stroke-linejoin:miter;stroke:rgb(0%,0%,0%);stroke-opacity:1;stroke-miterlimit:10;" d="M 251.191406 154.804688 L 235.5625 152.472656 "/>
<path style="fill:none;stroke-width:1.2;stroke-linecap:butt;stroke-linejoin:miter;stroke:rgb(0%,0%,0%);stroke-opacity:1;stroke-miterlimit:10;" d="M 264.75 144.234375 L 252.457031 159.691406 "/>
<path style="fill:none;stroke-width:1.2;stroke-linecap:butt;stroke-linejoin:miter;stroke:rgb(0%,0%,0%);stroke-opacity:1;stroke-miterlimit:10;" d="M 232.921875 156.777344 L 225.683594 138.398438 "/>
<path style="fill:none;stroke-width:1.2;stroke-linecap:butt;stroke-linejoin:miter;stroke:rgb(0%,0%,0%);stroke-opacity:1;stroke-miterlimit:10;" d="M 225.683594 138.398438 L 237.976562 122.941406 "/>
<path style="fill:none;stroke-width:1.2;stroke-linecap:butt;stroke-linejoin:miter;stroke:rgb(0%,0%,0%);stroke-opacity:1;stroke-miterlimit:10;" d="M 223.273438 133.960938 L 233.109375 121.59375 "/>
<path style="fill:none;stroke-width:1.2;stroke-linecap:butt;stroke-linejoin:miter;stroke:rgb(0%,0%,0%);stroke-opacity:1;stroke-miterlimit:10;" d="M 207.183594 131.484375 L 225.683594 138.398438 "/>
<path style="fill:none;stroke-width:1.2;stroke-linecap:butt;stroke-linejoin:miter;stroke:rgb(0%,0%,0%);stroke-opacity:1;stroke-miterlimit:10;" d="M 237.976562 122.941406 L 257.507812 125.859375 "/>
<path style="fill:none;stroke-width:1.2;stroke-linecap:butt;stroke-linejoin:miter;stroke:rgb(0%,0%,0%);stroke-opacity:1;stroke-miterlimit:10;" d="M 237.976562 122.941406 L 232.523438 114.707031 "/>
<path style="fill:none;stroke-width:1.2;stroke-linecap:butt;stroke-linejoin:miter;stroke:rgb(0%,0%,100%);stroke-opacity:1;stroke-miterlimit:10;" d="M 232.523438 114.707031 L 227.074219 106.472656 "/>
<path style="fill:none;stroke-width:1.2;stroke-linecap:butt;stroke-linejoin:miter;stroke:rgb(0%,0%,0%);stroke-opacity:1;stroke-miterlimit:10;" d="M 257.507812 125.859375 L 264.75 144.234375 "/>
<path style="fill:none;stroke-width:1.2;stroke-linecap:butt;stroke-linejoin:miter;stroke:rgb(0%,0%,0%);stroke-opacity:1;stroke-miterlimit:10;" d="M 253.910156 129.402344 L 259.703125 144.101562 "/>
<path style="fill:none;stroke-width:1.2;stroke-linecap:butt;stroke-linejoin:miter;stroke:rgb(0%,0%,100%);stroke-opacity:1;stroke-miterlimit:10;" d="M 227.074219 106.472656 L 217.558594 109.113281 "/>
<path style="fill:none;stroke-width:1.2;stroke-linecap:butt;stroke-linejoin:miter;stroke:rgb(0%,0%,0%);stroke-opacity:1;stroke-miterlimit:10;" d="M 217.558594 109.113281 L 208.042969 111.753906 "/>
<path style=" stroke:none;fill-rule:nonzero;fill:rgb(100%,100%,100%);fill-opacity:1;" d="M 220.074219 100.972656 L 234.074219 100.972656 L 234.074219 111.972656 L 220.074219 111.972656 Z M 220.074219 100.972656 "/>
<g style="fill:rgb(0%,0%,100%);fill-opacity:1;">
  <use xlink:href="#glyph0-2" x="220.074219" y="109.635742"/>
  <use xlink:href="#glyph0-3" x="227.051758" y="109.635742"/>
</g>
<path style="fill:none;stroke-width:1.2;stroke-linecap:butt;stroke-linejoin:miter;stroke:rgb(0%,0%,0%);stroke-opacity:1;stroke-miterlimit:10;" d="M 208.042969 111.753906 L 207.183594 131.484375 "/>
<path style="fill:none;stroke-width:1.2;stroke-linecap:butt;stroke-linejoin:miter;stroke:rgb(0%,0%,0%);stroke-opacity:1;stroke-miterlimit:10;" d="M 212.597656 113.929688 L 211.910156 129.714844 "/>
<path style="fill:none;stroke-width:1.2;stroke-linecap:butt;stroke-linejoin:miter;stroke:rgb(0%,0%,0%);stroke-opacity:1;stroke-miterlimit:10;" d="M 207.183594 131.484375 L 190.714844 142.386719 "/>
<path style="fill:none;stroke-width:1.2;stroke-linecap:butt;stroke-linejoin:miter;stroke:rgb(0%,0%,0%);stroke-opacity:1;stroke-miterlimit:10;" d="M 190.714844 142.386719 L 173.035156 133.578125 "/>
<path style="fill:none;stroke-width:1.2;stroke-linecap:butt;stroke-linejoin:miter;stroke:rgb(0%,0%,0%);stroke-opacity:1;stroke-miterlimit:10;" d="M 173.035156 133.578125 L 164.804688 139.027344 "/>
<path style="fill:none;stroke-width:1.2;stroke-linecap:butt;stroke-linejoin:miter;stroke:rgb(0%,0%,100%);stroke-opacity:1;stroke-miterlimit:10;" d="M 164.804688 139.027344 L 156.570312 144.480469 "/>
<path style="fill:none;stroke-width:1.2;stroke-linecap:butt;stroke-linejoin:miter;stroke:rgb(0%,0%,100%);stroke-opacity:1;stroke-miterlimit:10;" d="M 156.570312 144.480469 L 147.730469 140.074219 "/>
<path style="fill:none;stroke-width:1.2;stroke-linecap:butt;stroke-linejoin:miter;stroke:rgb(0%,0%,0%);stroke-opacity:1;stroke-miterlimit:10;" d="M 147.730469 140.074219 L 138.890625 135.667969 "/>
<path style=" stroke:none;fill-rule:nonzero;fill:rgb(100%,100%,100%);fill-opacity:1;" d="M 149.570312 138.980469 L 163.570312 138.980469 L 163.570312 149.980469 L 149.570312 149.980469 Z M 149.570312 138.980469 "/>
<g style="fill:rgb(0%,0%,100%);fill-opacity:1;">
  <use xlink:href="#glyph0-2" x="149.570312" y="147.643555"/>
  <use xlink:href="#glyph0-3" x="156.547852" y="147.643555"/>
</g>
<path style="fill:none;stroke-width:1.2;stroke-linecap:butt;stroke-linejoin:miter;stroke:rgb(0%,0%,0%);stroke-opacity:1;stroke-miterlimit:10;" d="M 138.890625 135.667969 L 138.289062 125.8125 "/>
<path style="fill:none;stroke-width:1.2;stroke-linecap:butt;stroke-linejoin:miter;stroke:rgb(0%,0%,100%);stroke-opacity:1;stroke-miterlimit:10;" d="M 138.289062 125.8125 L 137.683594 115.957031 "/>
<path style="fill:none;stroke-width:1.2;stroke-linecap:butt;stroke-linejoin:miter;stroke:rgb(0%,0%,0%);stroke-opacity:1;stroke-miterlimit:10;" d="M 134.132812 133.980469 L 133.648438 126.097656 "/>
<path style="fill:none;stroke-width:1.2;stroke-linecap:butt;stroke-linejoin:miter;stroke:rgb(0%,0%,100%);stroke-opacity:1;stroke-miterlimit:10;" d="M 133.648438 126.097656 L 133.167969 118.210938 "/>
<path style="fill:none;stroke-width:1.2;stroke-linecap:butt;stroke-linejoin:miter;stroke:rgb(0%,0%,0%);stroke-opacity:1;stroke-miterlimit:10;" d="M 122.421875 146.570312 L 138.890625 135.667969 "/>
<path style="fill:none;stroke-width:1.2;stroke-linecap:butt;stroke-linejoin:miter;stroke:rgb(0%,0%,100%);stroke-opacity:1;stroke-miterlimit:10;" d="M 137.683594 115.957031 L 128.847656 111.550781 "/>
<path style="fill:none;stroke-width:1.2;stroke-linecap:butt;stroke-linejoin:miter;stroke:rgb(0%,0%,0%);stroke-opacity:1;stroke-miterlimit:10;" d="M 128.847656 111.550781 L 120.007812 107.144531 "/>
<path style=" stroke:none;fill-rule:nonzero;fill:rgb(100%,100%,100%);fill-opacity:1;" d="M 134.683594 110.457031 L 141.683594 110.457031 L 141.683594 121.457031 L 134.683594 121.457031 Z M 134.683594 110.457031 "/>
<g style="fill:rgb(0%,0%,100%);fill-opacity:1;">
  <use xlink:href="#glyph0-2" x="134.683594" y="119.120117"/>
</g>
<path style="fill:none;stroke-width:1.2;stroke-linecap:butt;stroke-linejoin:miter;stroke:rgb(0%,0%,0%);stroke-opacity:1;stroke-miterlimit:10;" d="M 120.007812 107.144531 L 111.773438 112.59375 "/>
<path style="fill:none;stroke-width:1.2;stroke-linecap:butt;stroke-linejoin:miter;stroke:rgb(0%,0%,100%);stroke-opacity:1;stroke-miterlimit:10;" d="M 111.773438 112.59375 L 103.539062 118.046875 "/>
<path style="fill:none;stroke-width:1.2;stroke-linecap:butt;stroke-linejoin:miter;stroke:rgb(0%,0%,0%);stroke-opacity:1;stroke-miterlimit:10;" d="M 120.925781 112.109375 L 114.339844 116.46875 "/>
<path style="fill:none;stroke-width:1.2;stroke-linecap:butt;stroke-linejoin:miter;stroke:rgb(0%,0%,100%);stroke-opacity:1;stroke-miterlimit:10;" d="M 114.339844 116.46875 L 107.75 120.832031 "/>
<path style="fill:none;stroke-width:1.2;stroke-linecap:butt;stroke-linejoin:miter;stroke:rgb(0%,0%,100%);stroke-opacity:1;stroke-miterlimit:10;" d="M 103.539062 118.046875 L 104.144531 127.902344 "/>
<path style="fill:none;stroke-width:1.2;stroke-linecap:butt;stroke-linejoin:miter;stroke:rgb(0%,0%,0%);stroke-opacity:1;stroke-miterlimit:10;" d="M 104.144531 127.902344 L 104.746094 137.761719 "/>
<path style=" stroke:none;fill-rule:nonzero;fill:rgb(100%,100%,100%);fill-opacity:1;" d="M 100.539062 112.546875 L 107.539062 112.546875 L 107.539062 123.546875 L 100.539062 123.546875 Z M 100.539062 112.546875 "/>
<g style="fill:rgb(0%,0%,100%);fill-opacity:1;">
  <use xlink:href="#glyph0-2" x="100.539062" y="121.209961"/>
</g>
<path style="fill:none;stroke-width:1.2;stroke-linecap:butt;stroke-linejoin:miter;stroke:rgb(0%,0%,0%);stroke-opacity:1;stroke-miterlimit:10;" d="M 104.746094 137.761719 L 122.421875 146.570312 "/>
<path style="fill:none;stroke-width:1.2;stroke-linecap:butt;stroke-linejoin:miter;stroke:rgb(0%,0%,0%);stroke-opacity:1;stroke-miterlimit:10;" d="M 108.589844 134.484375 L 122.730469 141.53125 "/>
<path style="fill:none;stroke-width:1.2;stroke-linecap:butt;stroke-linejoin:miter;stroke:rgb(0%,0%,0%);stroke-opacity:1;stroke-miterlimit:10;" d="M 104.746094 137.761719 L 88.277344 148.664062 "/>
<path style="fill:none;stroke-width:1.2;stroke-linecap:butt;stroke-linejoin:miter;stroke:rgb(0%,0%,0%);stroke-opacity:1;stroke-miterlimit:10;" d="M 88.277344 148.664062 L 70.601562 139.851562 "/>
<path style="fill:none;stroke-width:1.2;stroke-linecap:butt;stroke-linejoin:miter;stroke:rgb(0%,0%,0%);stroke-opacity:1;stroke-miterlimit:10;" d="M 84.4375 151.941406 L 70.296875 144.890625 "/>
<path style="fill:none;stroke-width:1.2;stroke-linecap:butt;stroke-linejoin:miter;stroke:rgb(0%,0%,0%);stroke-opacity:1;stroke-miterlimit:10;" d="M 89.488281 168.375 L 88.277344 148.664062 "/>
<path style="fill:none;stroke-width:1.2;stroke-linecap:butt;stroke-linejoin:miter;stroke:rgb(0%,0%,0%);stroke-opacity:1;stroke-miterlimit:10;" d="M 70.601562 139.851562 L 54.132812 150.753906 "/>
<path style="fill:none;stroke-width:1.2;stroke-linecap:butt;stroke-linejoin:miter;stroke:rgb(0%,0%,0%);stroke-opacity:1;stroke-miterlimit:10;" d="M 54.132812 150.753906 L 55.339844 170.46875 "/>
<path style="fill:none;stroke-width:1.2;stroke-linecap:butt;stroke-linejoin:miter;stroke:rgb(0%,0%,0%);stroke-opacity:1;stroke-miterlimit:10;" d="M 58.894531 152.441406 L 59.859375 168.214844 "/>
<path style="fill:none;stroke-width:1.2;stroke-linecap:butt;stroke-linejoin:miter;stroke:rgb(0%,0%,0%);stroke-opacity:1;stroke-miterlimit:10;" d="M 54.132812 150.753906 L 45.296875 146.347656 "/>
<path style="fill:none;stroke-width:1.2;stroke-linecap:butt;stroke-linejoin:miter;stroke:rgb(100%,0%,0%);stroke-opacity:1;stroke-miterlimit:10;" d="M 45.296875 146.347656 L 36.457031 141.945312 "/>
<path style="fill:none;stroke-width:1.2;stroke-linecap:butt;stroke-linejoin:miter;stroke:rgb(0%,0%,0%);stroke-opacity:1;stroke-miterlimit:10;" d="M 55.339844 170.46875 L 73.019531 179.28125 "/>
<path style="fill:none;stroke-width:1.2;stroke-linecap:butt;stroke-linejoin:miter;stroke:rgb(0%,0%,0%);stroke-opacity:1;stroke-miterlimit:10;" d="M 73.019531 179.28125 L 89.488281 168.375 "/>
<path style="fill:none;stroke-width:1.2;stroke-linecap:butt;stroke-linejoin:miter;stroke:rgb(0%,0%,0%);stroke-opacity:1;stroke-miterlimit:10;" d="M 72.097656 174.3125 L 85.273438 165.59375 "/>
<path style="fill:none;stroke-width:1.2;stroke-linecap:butt;stroke-linejoin:miter;stroke:rgb(100%,0%,0%);stroke-opacity:1;stroke-miterlimit:10;" d="M 36.457031 141.945312 L 35.855469 132.085938 "/>
<path style="fill:none;stroke-width:1.2;stroke-linecap:butt;stroke-linejoin:miter;stroke:rgb(0%,0%,0%);stroke-opacity:1;stroke-miterlimit:10;" d="M 35.855469 132.085938 L 35.25 122.230469 "/>
<path style=" stroke:none;fill-rule:nonzero;fill:rgb(100%,100%,100%);fill-opacity:1;" d="M 32.457031 136.445312 L 40.457031 136.445312 L 40.457031 147.445312 L 32.457031 147.445312 Z M 32.457031 136.445312 "/>
<g style="fill:rgb(100%,0%,0%);fill-opacity:1;">
  <use xlink:href="#glyph0-1" x="32.457031" y="145.108398"/>
</g>
</g>
</svg>

<svg xmlns="http://www.w3.org/2000/svg" xmlns:xlink="http://www.w3.org/1999/xlink" width="300pt" height="300pt" viewBox="0 0 300 300"><defs><symbol overflow="visible"><path d="M.453 1.594v-7.938h4.5v7.938zm.5-.5h3.5v-6.938h-3.5zm0 0"/></symbol><symbol overflow="visible" id="a"><path d="M3.547-5.953c-.65 0-1.164.242-1.547.72-.375.48-.563 1.13-.563 1.952 0 .835.188 1.49.563 1.967.383.48.898.72 1.547.72.644 0 1.156-.24 1.53-.72.376-.476.564-1.132.564-1.968 0-.822-.187-1.474-.562-1.954-.375-.477-.887-.72-1.53-.72zm0-.734c.914 0 1.648.312 2.203.937.55.617.828 1.438.828 2.47 0 1.042-.277 1.87-.828 2.483-.555.617-1.29.922-2.203.922-.93 0-1.668-.305-2.22-.922C.774-1.41.5-2.237.5-3.28c0-1.033.273-1.853.828-2.47.55-.625 1.29-.938 2.22-.938zm0 0"/></symbol><symbol overflow="visible" id="b"><path d="M.89-6.563H2.08l2.906 5.485v-5.484h.86V0H4.656L1.75-5.484V0H.89zm0 0"/></symbol><symbol overflow="visible" id="c"><path d="M.89-6.563h.876v2.688H5v-2.688h.89V0H5v-3.125H1.766V0H.89zm0 0"/></symbol></defs><g><path fill="#fff" d="M0 0h300v300H0z"/><path d="M247.402 193.527l6.15-7.73" stroke-width="1.2" stroke="#000" stroke-miterlimit="10" fill="none"/><path d="M253.55 185.797l6.145-7.727M259.695 178.07l-3.617-9.19" stroke-width="1.2" stroke="#f00" stroke-miterlimit="10" fill="none"/><path d="M256.078 168.88l-3.62-9.19" stroke-width="1.2" stroke="#000" stroke-miterlimit="10" fill="none"/><path d="M255.695 172.57h8v11h-8zm0 0" fill="#fff"/><use xlink:href="#a" x="255.695" y="181.233" fill="#f00"/><path d="M252.457 159.69l-19.535-2.913M251.19 154.805l-15.627-2.332M264.75 144.234l-12.293 15.457M232.922 156.777l-7.238-18.38M225.684 138.398l12.293-15.457M223.273 133.96l9.836-12.366M207.184 131.484l18.5 6.914M237.977 122.94l19.53 2.92M237.977 122.94l-5.454-8.233" stroke-width="1.2" stroke="#000" stroke-miterlimit="10" fill="none"/><path d="M232.523 114.707l-5.45-8.234" stroke-width="1.2" stroke="#00f" stroke-miterlimit="10" fill="none"/><path d="M257.508 125.86l7.242 18.374M253.91 129.402l5.793 14.7" stroke-width="1.2" stroke="#000" stroke-miterlimit="10" fill="none"/><path d="M227.074 106.473l-9.515 2.64" stroke-width="1.2" stroke="#00f" stroke-miterlimit="10" fill="none"/><path d="M217.56 109.113l-9.517 2.64" stroke-width="1.2" stroke="#000" stroke-miterlimit="10" fill="none"/><path d="M220.074 100.973h14v11h-14zm0 0" fill="#fff"/><g fill="#00f"><use xlink:href="#b" x="220.074" y="109.636"/><use xlink:href="#c" x="227.052" y="109.636"/></g><path d="M208.043 111.754l-.86 19.73M212.598 113.93l-.688 15.785M207.184 131.484l-16.47 10.903M190.715 142.387l-17.68-8.81M173.035 133.578l-8.23 5.45" stroke-width="1.2" stroke="#000" stroke-miterlimit="10" fill="none"/><path d="M164.805 139.027l-8.235 5.453M156.57 144.48l-8.84-4.406" stroke-width="1.2" stroke="#00f" stroke-miterlimit="10" fill="none"/><path d="M147.73 140.074l-8.84-4.406" stroke-width="1.2" stroke="#000" stroke-miterlimit="10" fill="none"/><path d="M149.57 138.98h14v11h-14zm0 0" fill="#fff"/><g fill="#00f"><use xlink:href="#b" x="149.57" y="147.644"/><use xlink:href="#c" x="156.548" y="147.644"/></g><path d="M138.89 135.668l-.6-9.856" stroke-width="1.2" stroke="#000" stroke-miterlimit="10" fill="none"/><path d="M138.29 125.813l-.606-9.856" stroke-width="1.2" stroke="#00f" stroke-miterlimit="10" fill="none"/><path d="M134.133 133.98l-.485-7.882" stroke-width="1.2" stroke="#000" stroke-miterlimit="10" fill="none"/><path d="M133.648 126.098l-.48-7.887" stroke-width="1.2" stroke="#00f" stroke-miterlimit="10" fill="none"/><path d="M122.422 146.57l16.47-10.902" stroke-width="1.2" stroke="#000" stroke-miterlimit="10" fill="none"/><path d="M137.684 115.957l-8.836-4.406" stroke-width="1.2" stroke="#00f" stroke-miterlimit="10" fill="none"/><path d="M128.848 111.55l-8.84-4.405" stroke-width="1.2" stroke="#000" stroke-miterlimit="10" fill="none"/><path d="M134.684 110.457h7v11h-7zm0 0" fill="#fff"/><use xlink:href="#b" x="134.684" y="119.12" fill="#00f"/><path d="M120.008 107.145l-8.235 5.45" stroke-width="1.2" stroke="#000" stroke-miterlimit="10" fill="none"/><path d="M111.773 112.594l-8.234 5.453" stroke-width="1.2" stroke="#00f" stroke-miterlimit="10" fill="none"/><path d="M120.926 112.11l-6.586 4.36" stroke-width="1.2" stroke="#000" stroke-miterlimit="10" fill="none"/><path d="M114.34 116.47l-6.59 4.362M103.54 118.047l.605 9.855" stroke-width="1.2" stroke="#00f" stroke-miterlimit="10" fill="none"/><path d="M104.145 127.902l.6 9.86" stroke-width="1.2" stroke="#000" stroke-miterlimit="10" fill="none"/><path d="M100.54 112.547h7v11h-7zm0 0" fill="#fff"/><use xlink:href="#b" x="100.539" y="121.21" fill="#00f"/><path d="M104.746 137.762l17.676 8.808M108.59 134.484l14.14 7.047M104.746 137.762l-16.47 10.902M88.277 148.664l-17.675-8.812M84.438 151.94l-14.14-7.05M89.488 168.375l-1.21-19.71M70.602 139.852l-16.47 10.902M54.133 150.754l1.207 19.715M58.895 152.44l.964 15.775M54.133 150.754l-8.836-4.406" stroke-width="1.2" stroke="#000" stroke-miterlimit="10" fill="none"/><path d="M45.297 146.348l-8.84-4.403" stroke-width="1.2" stroke="#f00" stroke-miterlimit="10" fill="none"/><path d="M55.34 170.47l17.68 8.81M73.02 179.28l16.468-10.905M72.098 174.313l13.175-8.72" stroke-width="1.2" stroke="#000" stroke-miterlimit="10" fill="none"/><path d="M36.457 141.945l-.602-9.86" stroke-width="1.2" stroke="#f00" stroke-miterlimit="10" fill="none"/><path d="M35.855 132.086l-.605-9.856" stroke-width="1.2" stroke="#000" stroke-miterlimit="10" fill="none"/><path d="M32.457 136.445h8v11h-8zm0 0" fill="#fff"/><use xlink:href="#a" x="32.457" y="145.108" fill="#f00"/></g></svg>
